X: 159
T: No_82_Song_of_the_Sentry.krn
%%abc-version 2.0
%%abcx-abcm2ps-target-version 5.9.1 (29 Sep 2008)
%%abc-creator hum2abc beta
%%abcx-conversion-date 2020/08/10 18:54:57
%%gracespace 0 6 6
%%humdrum-veritas 341743049
%%humdrum-veritas-data 2360425632
%%linebreak <none>
%%barnumbers 0
L: 1/8
M: 3/4
%%staves {1 2}
V: 1 clef=bass
V: 2 clef=bass
K: E
[V:1] [K:clef=bass][M:3/4]C2(3G,CCC2 ||  
[V:2] [K:clef=bass][M:3/4](3!accent!G,, z G,, (3!accent!G,, z G,, (3!accent!G,, z G,, ||  
[V:1] [M:2/4]C3B, | 
[V:2] [M:2/4]z4 | 
[V:1] G,<G,-G,2 ||  
[V:2] z4 ||  
[V:1] [M:3/4]G,4F,F, ||  
[V:2] [M:3/4]z6 ||  
[V:1] [M:2/4]F,4 ||  
[V:2] [M:2/4]z4 ||  
[V:1] [M:3/4]E,<F,- F,E, (3C,C,C, ||  
[V:2] [M:3/4]z6 ||  
[V:1] [M:2/4]F,<F, F,//E,//C,/C,/E,//E,// ||  
[V:2] [M:2/4]z4 ||  
[V:1] [M:3/4]C,>C,C,4 | 
[V:2] [M:3/4]z6 | 
[V:1] C,6 ||  
[V:2] z6 ||  
[V:1] [M:2/4]G,<G,G,2 | 
[V:2] [M:2/4]z4 | 
[V:1] (3G,G,G,G,2 | 
[V:2] z4 | 
[V:1] G,<G, G,3/F,/ ||  
[V:2] z4 ||  
[V:1] [M:3/4]F,<F,F,4 ||  
[V:2] [M:3/4]z6 ||  
[V:1] [M:2/4]E,<F, F,E, | 
[V:2] [M:2/4]z4 | 
[V:1] C,<C,-C,2 | 
[V:2] z4 | 
[V:1] F,<F, F,//E,//E,/ C,//E,//E,/ ||  
[V:2] z4 ||  
[V:1] [M:3/4]C,<C,C,4 | 
[V:2] [M:3/4]z6 | 
[V:1] C,6 |]  
[V:2] z6 |]  


